X:463
T: "Geusenlied"
N: Z1143
O: Europa, Mitteleuropa, Deutschland
R: Vaterland und Wehr
M: 2/4
L: 1/16
K: G
D2 | GFGAG2B2 | A4d3c | B4A2
d2 | c4B2B2 | A2G2A2B2 | G4z2
D2 | GFGAG2B2 | A4d3c | B4A2
d2 | c4B2B2 | A2G2A2B2 | G4z2
G2 | B2A2B2c2 | d3ed2
c2 | B2A2B2c2 | d3ed2
c2 | c2B2A2A2 | G3AB2
c2 | d2d2edcB | A4z2
D2 | GFGAG2B2 | A4d3c | B2B2A2
d2 | c4B2B2 | A2G2A2B2 | G6

